docs/.gitbook/assets/icon-speaker-16@light.svg

<svg width="32" height="32" viewBox="0 0 16 16" fill="none" xmlns="http://www.w3.org/2000/svg">
<rect x="0" y="0" width="16" height="16" fill="#fff"/>
<path fill-rule="evenodd" clip-rule="evenodd" d="M4.75 2.5C4.05964 2.5 3.5 3.05964 3.5 3.75V12.25C3.5 12.9404 4.05964 13.5 4.75 13.5H11.25C11.9404 13.5 12.5 12.9404 12.5 12.25V3.75C12.5 3.05964 11.9404 2.5 11.25 2.5H4.75ZM2 3.75C2 2.23122 3.23122 1 4.75 1H11.25C12.7688 1 14 2.23122 14 3.75V12.25C14 13.7688 12.7688 15 11.25 15H4.75C3.23122 15 2 13.7688 2 12.25V3.75ZM8 8.5C7.44772 8.5 7 8.94772 7 9.5C7 10.0523 7.44772 10.5 8 10.5C8.55228 10.5 9 10.0523 9 9.5C9 8.94772 8.55228 8.5 8 8.5ZM5.5 9.5C5.5 8.11929 6.61929 7 8 7C9.38071 7 10.5 8.11929 10.5 9.5C10.5 10.8807 9.38071 12 8 12C6.61929 12 5.5 10.8807 5.5 9.5ZM8 5.5C8.41421 5.5 8.75 5.16421 8.75 4.75C8.75 4.33579 8.41421 4 8 4C7.58579 4 7.25 4.33579 7.25 4.75C7.25 5.16421 7.58579 5.5 8 5.5Z" fill="#000"/>
</svg>

<svg xmlns="http://www.w3.org/2000/svg" width="32" height="32" fill="none" viewBox="0 0 16 16"><path fill="#fff" d="M0 0h16v16H0z"/><path fill="#000" fill-rule="evenodd" d="M4.75 2.5c-.69 0-1.25.56-1.25 1.25v8.5c0 .69.56 1.25 1.25 1.25h6.5c.69 0 1.25-.56 1.25-1.25v-8.5c0-.69-.56-1.25-1.25-1.25zM2 3.75A2.75 2.75 0 0 1 4.75 1h6.5A2.75 2.75 0 0 1 14 3.75v8.5A2.75 2.75 0 0 1 11.25 15h-6.5A2.75 2.75 0 0 1 2 12.25zM8 8.5a1 1 0 1 0 0 2 1 1 0 0 0 0-2m-2.5 1a2.5 2.5 0 1 1 5 0 2.5 2.5 0 0 1-5 0m2.5-4A.75.75 0 1 0 8 4a.75.75 0 0 0 0 1.5" clip-rule="evenodd"/></svg>
